!!!SOCIAL_FUNCTION:	songs connected with war and hunting
!!!PDT:	1932
!!!OTL: No_35_Tomorrow_I_Will_Get_Them.krn
!!!REG: Wisconsin
!!!LANG: Non-Tone
!!!LING_GROUP: Algonquin
**kern
*staff1
=1-
*clefF4
*k[f#c#g#d#]
*M2/4
4r
8E\L
8E\J
=2!|:
4F#\
8G#\L
8G#\J
=3
4F#\
8F#\L
8F#\J
=4
8F#\
8r
8F#\L
8B\J
=5
4B\
8B\L
8G#\J
=6
4F#\
8E\L
8E\J
=7
4F#\
16E/LL
16C#/
16BB/JJ
16r
=8
4F#\
8G#\L
8F#\J
=9
4E\
8C#/L
8BB/J
=10
4BB/
8BB/L
8BB/J
=11
2BB/
=12
8BB/
8r
8E\L
8E\J
=13:|!
4BB/
4r
==
*-
